X: 261
T: The Thistle and the Rose
C: Bert Murray
R: air
B: Bert Murray's "Bon Accord Collection" 1999 p.26
%
N: This tune was written for the Tappen family in Pasadena
Z: 2011 John Chambers <jc:trillian.mit.edu>
M: C
L: 1/8
K: Bb
|: !p!(uFB) |\
{de}d4- dB e>d | {de}d2 c4 c>B | "4"A4- Ag f>e | {de}d6 (FB) |
{de}d4- dB e>d | {de}d2 c4 cB | "4"A4- AB d>c | {Bc}B6 :|
|: !f!(de) |\
{fg}f4- fb b>a | a2 g4 c>B | !p!A4- Ag f>e | {de}d6 (de) |
!f!f4- fd b>a | {ab}a2 g4 cB | !p!A4- AB d>c | {Bc}B6 :|
